X:1
T:Have Thine Own Way, Lord!
T:Text: Adelaide A. Pollard (1862-1934) Tune: George C. Stebbins (1846-1945)
T:54 54D ADELAIDE www.hymnary.org/text/have_thine_own_way_lord
T:Have Thine Own Way, Lord!
T:This hymn is in the public domain.  You may freely use this score for personal and congregational worship.  If you reproduce the score, please credit Hymnary.org as the source. 
T:This hymn is in the public domain.  You may freely use this score for personal and congregational worship.  If you reproduce the score, please credit Hymnary.org as the source. 
Z:This hymn is in the public domain.  You may freely use this score for personal and congregational worship.  If you reproduce the score, please credit Hymnary.org as the source.
%%score ( 1 2 ) ( 3 4 )
L:1/8
M:9/4
K:Eb
V:1 treble nm="Piano" snm="Pno."
V:2 treble 
V:3 bass nm="Piano" snm="Pno."
V:4 bass 
V:1
 [EG]2 F2 [EG]2 | [EA]6 [EG]6 [B,E]2 [B,D]2 [B,E]2 | [DF]6- [DF]6 [DF]2 =E2 [DF]2 | %3
w: 3~Have thine own|way, Lord! Have thine own|way! _ Woun- ded and|
w: 1~Have thine own|way, Lord! Have thine own|way! _ Thou art the|
w: 2~Have thine own|way, Lord! Have thine own|way! _ Search me and|
 [DG]6 [DF]6 [B,F]2 [B,E]2 [B,D]2 | [B,E]6- [B,E]6 [EG]2 F2 [EG]2 | %5
w: wea- ry, help me, I|pray. _ Pow- er— all|
w: Pot- ter, I am the|clay. _ Mold me and|
w: try me, Mas- ter, to-|day! _ Whi- ter than|
 [EA]6 [EG]6 [_DB]2 [C=A]2 [DB]2 | [Ec]6- [Ec]6 [Ec]2 [Ed]2 [Ec]2 | %7
w: pow- er— sure- ly is|thine! _ Touch me and|
w: make me af- ter thy|will, _ while I am|
w: snow, Lord, wash me just|now, _ as in thy|
 [EB]6 [EG]6 [B,F]2 [B,E]2 [B,F]2 | [B,E]6- [B,E]6 |] %9
w: heal me, Sa- vior di-|vine! *|
w: wait- ing yield- ed and|still. *|
w: pre- sence hum- bly I|bow. *|
V:2
 x2 E2 x2 | x18 | x14 D2 x2 | x18 | x14 E2 x2 | x18 | x18 | x18 | x12 |] %9
V:3
 [E,B,]2 [E,A,]2 [E,B,]2 | [E,C]6 [E,B,]6 [E,G,]2 F,2 [E,G,]2 | %2
 [B,,A,]6- [B,,A,]6 [B,,A,]2 [B,,G,]2 [B,,A,]2 | [B,,B,]6 [B,,A,]6 [B,,A,]2 [B,,G,]2 [B,,F,]2 | %4
 [E,G,]6- [E,G,]6 [E,B,]2 [E,A,]2 [E,B,]2 | [E,C]6 [E,B,]6 [E,G,]2 [E,G,]2 [E,G,]2 | %6
 [A,,A,]6- [A,,A,]6 [A,,A,]2 [A,,B,]2 [A,,A,]2 | [B,,G,]6 [B,,B,]6 [B,,A,]2 [B,,G,]2 [B,,A,]2 | %8
 [E,G,]6- [E,G,]6 |] %9
V:4
 x6 | x14 E,2 x2 | x18 | x18 | x18 | x18 | x18 | x18 | x12 |] %9

